src/images/icons/tooltip-info.svg

<?xml version="1.0" encoding="UTF-8"?>
<svg width="16px" height="16px" viewBox="0 0 16 16" version="1.1" xmlns="http://www.w3.org/2000/svg" xmlns:xlink="http://www.w3.org/1999/xlink">
    <!-- Generator: Sketch 49.3 (51167) - http://www.bohemiancoding.com/sketch -->
    <title>tooltip-info</title>
    <desc>Created with Sketch.</desc>
    <g id="Marvel" stroke="none" stroke-width="1" fill="none" fill-rule="evenodd">
        <g id="Marvel_Profile_Edit_Parts_01" transform="translate(-864.000000, -869.000000)">
            <g id="Group-2-Copy" transform="translate(393.000000, 841.000000)">
                <g id="Component-/-Icons-/-S-/-Info-Stroke" transform="translate(471.000000, 28.000000)">
                    <mask id="mask-2" fill="white">
                        <path d="M7.999613,0.888888889 C4.07292321,0.888888889 0.888888889,4.07292321 0.888888889,7.999613 C0.888888889,11.9265036 4.073124,15.1111111 7.999613,15.1111111 C11.9263028,15.1111111 15.1111111,11.9263028 15.1111111,7.999613 C15.1111111,4.073124 11.9265036,0.888888889 7.999613,0.888888889 Z M7.99966138,0 C12.4173545,0 16,3.58196825 16,7.99966138 C16,12.4173545 12.4173545,16 7.99966138,16 C3.58196825,16 0,12.4173545 0,7.99966138 C0,3.58196825 3.58196825,0 7.99966138,0 Z M9.66501587,12.3983915 L9.80249735,11.8383069 C9.73070899,11.8714921 9.61693122,11.9100952 9.45980952,11.9534392 C9.30133333,11.9967831 9.16114286,12.0191323 9.03585185,12.0191323 C8.77037037,12.0191323 8.58277249,11.9751111 8.4757672,11.887746 C8.36740741,11.800381 8.31390476,11.6358095 8.31390476,11.394709 C8.31390476,11.2992169 8.33015873,11.1569947 8.36334392,10.9707513 C8.39720635,10.7845079 8.43445503,10.6179048 8.47644444,10.4722963 L8.98912169,8.65726984 C9.0392381,8.48998942 9.07377778,8.30780952 9.09206349,8.10802116 C9.11034921,7.90891005 9.11983069,7.76939683 9.11983069,7.69015873 C9.11983069,7.30819048 8.9850582,6.99733333 8.71754497,6.75826455 C8.44867725,6.51987302 8.06670899,6.39932275 7.57164021,6.39932275 C7.2973545,6.39932275 7.00613757,6.44808466 6.69798942,6.54696296 C6.38984127,6.64448677 6.06679365,6.76232804 5.72952381,6.89980952 L5.59339683,7.46057143 C5.69227513,7.4226455 5.8128254,7.38404233 5.95166138,7.34137566 C6.09185185,7.30006349 6.22865608,7.28042328 6.36139683,7.28042328 C6.63297354,7.28042328 6.81515344,7.32512169 6.912,7.41655026 C7.00749206,7.50797884 7.05557672,7.67051852 7.05557672,7.90213757 C7.05557672,8.03216931 7.04067725,8.17506878 7.00952381,8.33083598 C6.97837037,8.48524868 6.93908995,8.6511746 6.89371429,8.82590476 L6.37832804,10.6463492 C6.33295238,10.8380106 6.2997672,11.0086772 6.27877249,11.160381 C6.25845503,11.3120847 6.2482963,11.4610794 6.2482963,11.6066878 C6.2482963,11.9812063 6.38577778,12.2893545 6.66209524,12.5324868 C6.9384127,12.775619 7.32647619,12.8975238 7.82493122,12.8975238 C8.14933333,12.8975238 8.43445503,12.8548571 8.67961905,12.7695238 C8.92546032,12.6841905 9.25324868,12.5609312 9.66501587,12.3983915 Z M9.57426455,5.03128042 C9.81333333,4.80914286 9.93320635,4.53959788 9.93320635,4.22332275 C9.93320635,3.90840212 9.81333333,3.63750265 9.57426455,3.41333333 C9.33587302,3.18848677 9.04736508,3.07674074 8.71077249,3.07674074 C8.37485714,3.07674074 8.08499471,3.18848677 7.84389418,3.41333333 C7.6048254,3.63750265 7.48292063,3.90840212 7.48292063,4.22332275 C7.48292063,4.53892063 7.60414815,4.80914286 7.84389418,5.03128042 C8.08499471,5.25341799 8.37485714,5.36448677 8.71077249,5.36448677 C9.04736508,5.36448677 9.33519577,5.25341799 9.57426455,5.03128042 Z"></path>
                    </mask>
                    <path d="M7.999613,0.888888889 C4.07292321,0.888888889 0.888888889,4.07292321 0.888888889,7.999613 C0.888888889,11.9265036 4.073124,15.1111111 7.999613,15.1111111 C11.9263028,15.1111111 15.1111111,11.9263028 15.1111111,7.999613 C15.1111111,4.073124 11.9265036,0.888888889 7.999613,0.888888889 Z M7.99966138,0 C12.4173545,0 16,3.58196825 16,7.99966138 C16,12.4173545 12.4173545,16 7.99966138,16 C3.58196825,16 0,12.4173545 0,7.99966138 C0,3.58196825 3.58196825,0 7.99966138,0 Z M9.66501587,12.3983915 L9.80249735,11.8383069 C9.73070899,11.8714921 9.61693122,11.9100952 9.45980952,11.9534392 C9.30133333,11.9967831 9.16114286,12.0191323 9.03585185,12.0191323 C8.77037037,12.0191323 8.58277249,11.9751111 8.4757672,11.887746 C8.36740741,11.800381 8.31390476,11.6358095 8.31390476,11.394709 C8.31390476,11.2992169 8.33015873,11.1569947 8.36334392,10.9707513 C8.39720635,10.7845079 8.43445503,10.6179048 8.47644444,10.4722963 L8.98912169,8.65726984 C9.0392381,8.48998942 9.07377778,8.30780952 9.09206349,8.10802116 C9.11034921,7.90891005 9.11983069,7.76939683 9.11983069,7.69015873 C9.11983069,7.30819048 8.9850582,6.99733333 8.71754497,6.75826455 C8.44867725,6.51987302 8.06670899,6.39932275 7.57164021,6.39932275 C7.2973545,6.39932275 7.00613757,6.44808466 6.69798942,6.54696296 C6.38984127,6.64448677 6.06679365,6.76232804 5.72952381,6.89980952 L5.59339683,7.46057143 C5.69227513,7.4226455 5.8128254,7.38404233 5.95166138,7.34137566 C6.09185185,7.30006349 6.22865608,7.28042328 6.36139683,7.28042328 C6.63297354,7.28042328 6.81515344,7.32512169 6.912,7.41655026 C7.00749206,7.50797884 7.05557672,7.67051852 7.05557672,7.90213757 C7.05557672,8.03216931 7.04067725,8.17506878 7.00952381,8.33083598 C6.97837037,8.48524868 6.93908995,8.6511746 6.89371429,8.82590476 L6.37832804,10.6463492 C6.33295238,10.8380106 6.2997672,11.0086772 6.27877249,11.160381 C6.25845503,11.3120847 6.2482963,11.4610794 6.2482963,11.6066878 C6.2482963,11.9812063 6.38577778,12.2893545 6.66209524,12.5324868 C6.9384127,12.775619 7.32647619,12.8975238 7.82493122,12.8975238 C8.14933333,12.8975238 8.43445503,12.8548571 8.67961905,12.7695238 C8.92546032,12.6841905 9.25324868,12.5609312 9.66501587,12.3983915 Z M9.57426455,5.03128042 C9.81333333,4.80914286 9.93320635,4.53959788 9.93320635,4.22332275 C9.93320635,3.90840212 9.81333333,3.63750265 9.57426455,3.41333333 C9.33587302,3.18848677 9.04736508,3.07674074 8.71077249,3.07674074 C8.37485714,3.07674074 8.08499471,3.18848677 7.84389418,3.41333333 C7.6048254,3.63750265 7.48292063,3.90840212 7.48292063,4.22332275 C7.48292063,4.53892063 7.60414815,4.80914286 7.84389418,5.03128042 C8.08499471,5.25341799 8.37485714,5.36448677 8.71077249,5.36448677 C9.04736508,5.36448677 9.33519577,5.25341799 9.57426455,5.03128042 Z" fill="#00A9FF" fill-rule="nonzero"></path>
                </g>
            </g>
        </g>
    </g>
</svg>

<svg width="16" height="16" viewBox="0 0 16 16" xmlns="http://www.w3.org/2000/svg">
    <title>
        tooltip-info
    </title>
    <path d="M8 .889a7.111 7.111 0 1 0 0 14.223A7.111 7.111 0 0 0 8 .889zM8 0a8 8 0 1 1-.001 16.001A8 8 0 0 1 7.999 0zm1.665 12.398l.137-.56a2.41 2.41 0 0 1-.342.115 1.625 1.625 0 0 1-.424.066c-.266 0-.453-.044-.56-.131-.109-.088-.162-.252-.162-.493 0-.096.016-.238.05-.424.033-.186.07-.353.112-.499l.513-1.815c.05-.167.085-.35.103-.549.018-.2.028-.339.028-.418 0-.382-.135-.693-.402-.932-.27-.238-.651-.359-1.146-.359-.275 0-.566.05-.874.148-.308.097-.631.215-.968.353l-.137.56a5.82 5.82 0 0 1 .359-.119c.14-.04.277-.06.41-.06.271 0 .453.044.55.136.095.091.144.254.144.485 0 .13-.015.273-.046.429-.032.154-.07.32-.116.495l-.516 1.82a5.574 5.574 0 0 0-.1.514c-.02.152-.03.301-.03.447 0 .374.138.682.414.925.276.244.664.366 1.163.366a2.6 2.6 0 0 0 .855-.128c.245-.086.573-.21.985-.372zm-.09-7.367c.238-.222.358-.491.358-.808 0-.315-.12-.585-.359-.81a1.214 1.214 0 0 0-.863-.336c-.336 0-.626.111-.867.336-.24.225-.361.495-.361.81 0 .316.121.586.36.808.242.222.532.333.868.333.336 0 .624-.11.863-.333z" fill="#00A9FF" fill-rule="nonzero"/>
</svg>
